**kern	**kern	**kern	**text	**kern	**text	**kern	**text
*part5	*part4	*part3	*part3	*part2	*part2	*part1	*part1
*staff5	*staff4	*staff3	*staff3	*staff2	*staff2	*staff1	*staff1
*I"Bass	*I"3rd	*I"2nd	*	*I"1st	*	*I"Lead	*
*I'B	*I'3	*I'2	*	*I'1	*	*I'L	*
*clefF4	*clefGv2	*clefG2	*	*clefG2	*	*clefGv2	*
*k[f#]	*k[f#]	*k[f#]	*	*k[f#]	*	*k[f#]	*
*M4/4	*M4/4	*M4/4	*	*M4/4	*	*M4/4	*
*MM83	*MM83	*MM83	*	*MM83	*	*MM83	*
4r	2r	4r	.	2r	.	2r	.
16DLL	.	16dLL	tu	.	.	.	.
16E	.	16e	lu	.	.	.	.
16G	.	16g	lu	.	.	.	.
16EJJ	.	16eJJ	lu	.	.	.	.
=1	=1	=1	=1	=1	=1	=1	=1
4G	4d	4g	.	4b	fu	8r	.
.	.	.	.	.	.	[4.b	fu
4F#	4d	4f#	.	4a	.	.	.
4E	4B	4e	.	4g	.	4b_	.
4D	4A	4d	.	4f#	.	16b]	.
.	.	.	.	.	.	16r	.
.	.	.	.	.	.	16aLL	.
.	.	.	.	.	.	16bJJ	.
=2	=2	=2	=2	=2	=2	=2	=2
16D#X	8AL	8d#XL	.	8f#L	la	8a	.
16r	.	.	.	.	.	.	.
8D#	8AJ	8d#J	.	8f#J	ta	4g	.
8r	8r	8r	.	8r	.	.	.
[8E	[8B	[8e	.	[8g	fu	16aLL	.
.	.	.	.	.	.	16bJJ	.
8EL]	2B]	2e]	.	2g]	.	2r	.
8E	.	.	.	.	.	.	.
8BB	.	.	.	.	.	.	.
8AA#XJ	.	.	.	.	.	.	.
=3	=3	=3	=3	=3	=3	=3	=3
16AALL	16cLL	16eLL	.	16gLL	sya	1r	.
16AA	16c	16e	.	16g	ba	.	.
16AA	16c	16e	.	16g	da	.	.
16AAJJ	16cJJ	16eJJ	.	16gJJ	ba	.	.
8AA'L	8c'L	8e'L	.	8g'L	da	.	.
16BBL	16dL	16f#L	.	16aL	da	.	.
16BBJJ	16dJJ	16f#JJ	.	16aJJ	da	.	.
16r	16r	16r	.	16r	.	.	.
16BBKL	16dKL	16f#KL	.	16aKL	da	.	.
8BB'J	8d'J	8f#'J	.	8a'J	da	.	.
4r	4r	4r	.	4r	.	.	.
=4	=4	=4	=4	=4	=4	=4	=4
16CLL	16d#XLL	16gLL	.	16a#XLL	sya	1r	.
16C	16d#	16g	.	16a#	ba	.	.
16C	16d#	16g	.	16a#	da	.	.
16CJJ	16d#JJ	16gJJ	.	16a#JJ	ba	.	.
8C'L	8d#'L	8g'L	.	8a#'L	da	.	.
16DL	16dnL	16f#L	.	16anL	da	.	.
16DJJ	16dJJ	16f#JJ	.	16aJJ	da	.	.
16r	16r	16r	.	16r	.	.	.
16DKL	16dKL	16f#KL	.	16aKL	da	.	.
8D'J	8d'J	8f#'J	.	8a'J	da	.	.
16DLL	4r	4r	.	4r	.	.	.
16E	.	.	.	.	.	.	.
16G	.	.	.	.	.	.	.
16EJJ	.	.	.	.	.	.	.
=5	=5	=5	=5	=5	=5	=5	=5
16GG	2B	2d	.	2g	fu	8dL	目
16r	.	.	.	.	.	.	.
[8GG	.	.	.	.	.	16BL	が
.	.	.	.	.	.	[16dJJ	覚
8.GGL]	.	.	.	.	.	8dL]	.
.	.	.	.	.	.	16BL	め
16GGJk	.	.	.	.	.	16dJJ	て
16BB	2A	2d	.	2f#	.	8r	.
16r	.	.	.	.	.	.	.
[8BB	.	.	.	.	.	16BLL	よ
.	.	.	.	.	.	[16dJJ	だ
8.BBL]	.	.	.	.	.	8dL]	.
.	.	.	.	.	.	16eL	れ
16GGJk	.	.	.	.	.	[16eJJ	を
=6	=6	=6	=6	=6	=6	=6	=6
16C	2B	2e	.	2g	.	8eL]	.
16r	.	.	.	.	.	.	.
[8C	.	.	.	.	.	16dL	拭
.	.	.	.	.	.	[16dJJ	い
8.CL]	.	.	.	.	.	8dL]	.
.	.	.	.	.	.	16BL	た
16GGJk	.	.	.	.	.	16GJJ	ら
16BB	2B	2d	.	4g	.	4r	.
16r	.	.	.	.	.	.	.
[8BB	.	.	.	.	.	.	.
8.BBL]	.	.	.	4f#	.	8r	.
.	.	.	.	.	.	16GLL	ま
16GGJk	.	.	.	.	.	[16GJJ	ど
=7	=7	=7	=7	=7	=7	=7	=7
16EE	2B	2d	.	2g	.	8GL]	.
16r	.	.	.	.	.	.	.
[8EE	.	.	.	.	.	16AL	べ
.	.	.	.	.	.	16BJJ	に
8EEL]	.	.	.	.	.	8r	.
16GGL	.	.	.	.	.	16GLL	ひ
16GG#XJJ	.	.	.	.	.	[16GJJ	か
16AA	2c#X	2e	.	2g	.	8GL]	.
16r	.	.	.	.	.	.	.
[8AA	.	.	.	.	.	16AL	り
.	.	.	.	.	.	16BJJ	が
8.AAL]	.	.	.	.	.	8r	.
.	.	.	.	.	.	16dLL	ほ
16AAJk	.	.	.	.	.	[16dJJ	ほ
=8	=8	=8	=8	=8	=8	=8	=8
16D	2A	2c	.	2g	.	8dL]	.
16r	.	.	.	.	.	.	.
[8D	.	.	.	.	.	16BL	え
.	.	.	.	.	.	[16BJJ	ん
16DLL]	.	.	.	.	.	8BL]	.
16EEJ	.	.	.	.	.	.	.
8BBJ	.	.	.	.	.	16AL	で
.	.	.	.	.	.	16AJJ	た
8AA	2A	2d	fu	8f#L	tu	2r	.
16r	.	.	.	16eL	lu	.	.
16AA	.	.	.	16dJJ	lu	.	.
8DL	.	.	.	4f#	lu	.	.
8AAJ	.	.	.	.	.	.	.
=9	=9	=9	=9	=9	=9	=9	=9
16GG	2B	2d	.	2g	fu	8dL	そ
16r	.	.	.	.	.	.	.
[8GG	.	.	.	.	.	16BL	ら
.	.	.	.	.	.	[16dJJ	の
8.GGL]	.	.	.	.	.	8dL]	.
.	.	.	.	.	.	16BL	あ
16GGJk	.	.	.	.	.	16dJJ	お
16BB	2A	2d	.	2f#	.	8r	.
16r	.	.	.	.	.	.	.
[8BB	.	.	.	.	.	16BLL	お
.	.	.	.	.	.	[16dJJ	ど
8.BBL]	.	.	.	.	.	8dL]	.
.	.	.	.	.	.	16eL	る
16GGJk	.	.	.	.	.	[16eJJ	み
=10	=10	=10	=10	=10	=10	=10	=10
16C	2B	2e	.	2g	.	8eL]	.
16r	.	.	.	.	.	.	.
[8C	.	.	.	.	.	16dL	ど
.	.	.	.	.	.	[16dJJ	り
8.CL]	.	.	.	.	.	8dL]	.
.	.	.	.	.	.	16BL	の
16GGJk	.	.	.	.	.	16GJJ	葉
16BB	2B	2d	.	4g	.	4r	.
16r	.	.	.	.	.	.	.
[8BB	.	.	.	.	.	.	.
8BBL]	.	.	.	4f#	.	8r	.
16GGL	.	.	.	.	.	16GLL	た
16BBJJ	.	.	.	.	.	[16GJJ	た
=11	=11	=11	=11	=11	=11	=11	=11
16EE	2B	2d	.	2g	.	8GL]	.
16r	.	.	.	.	.	.	.
[8EE	.	.	.	.	.	16AL	ん
.	.	.	.	.	.	16BJJ	だ
8EEL]	.	.	.	.	.	8r	.
16BBL	.	.	.	.	.	16dLL	タ
16AA#XJJ	.	.	.	.	.	[16dJJ	オ
4AAn	4d	4e	.	4g	.	8dL]	.
.	.	.	.	.	.	16BL	ル
.	.	.	.	.	.	[16BJJ	の
4D	4c	4f#	.	4a	.	8BL]	.
.	.	.	.	.	.	16AL	あ
.	.	.	.	.	.	16GJJ	と
=12	=12	=12	=12	=12	=12	=12	=12
4GG	2B	2d	.	2g	.	1r	.
4GG	.	.	.	.	.	.	.
8r	8r	8r	.	8r	.	.	.
8AA	8c	8e	.	8g	ta	.	.
16r	16r	16r	.	16r	.	.	.
8.BB	8.d	8.f#	.	8.a	ta	.	.
=13	=13	=13	=13	=13	=13	=13	=13
16C	2e	2g	.	2b	ha	4e	きゅう
16r	.	.	.	.	.	.	.
[8C	.	.	.	.	.	.	.
8.CL]	.	.	.	.	.	16eLL	きゅ
.	.	.	.	.	.	16d	う
.	.	.	.	.	.	16B	しゃ
16AAJk	.	.	.	.	.	[16dJJ	の
8.DL	2d	2f#	.	2a	.	16dKL]	.
.	.	.	.	.	.	8.e'J	.
16AAJk	.	.	.	.	.	.	.
16D	.	.	.	.	.	4r	.
16r	.	.	.	.	.	.	.
8AA	.	.	.	.	.	.	.
=14	=14	=14	=14	=14	=14	=14	=14
16BB	2A	2d	.	2f#	fu	8eL	サ
16r	.	.	.	.	.	.	.
[8BB	.	.	.	.	.	16dL	イ
.	.	.	.	.	.	[16dJJ	レ
8BBL]	.	.	.	.	.	8dL]	.
8BBJ	.	.	.	.	.	16BL	ン
.	.	.	.	.	.	16GJJ	が
4E	2B	2d	.	2g	.	2r	.
16r	.	.	.	.	.	.	.
16EEKL	.	.	.	.	.	.	.
8BBJ	.	.	.	.	.	.	.
=15	=15	=15	=15	=15	=15	=15	=15
16AA	4r	4r	.	4r	.	8EL	む
16r	.	.	.	.	.	.	.
[8AA	.	.	.	.	.	16GL	ね
.	.	.	.	.	.	[16AJJ	の
8.AAL]	4c	4g	.	4g	fu	16ALL]	.
.	.	.	.	.	.	16B	い
.	.	.	.	.	.	16A	と
16AAJk	.	.	.	.	.	16AJJ	を
4BB	4d	4f#	.	4f#	.	4d	.
16r	4d	4f#	.	4a	.	4r	.
16AALL	.	.	.	.	.	.	.
16BB	.	.	.	.	.	.	.
16CJJ	.	.	.	.	.	.	.
=16	=16	=16	=16	=16	=16	=16	=16
4D	1c	2f#	.	1a	.	16eKL	締
.	.	.	.	.	.	8.dJ	め
8r	.	.	.	.	.	8dL	る
16AALL	.	.	.	.	.	16BL	か
16BBJJ	.	.	.	.	.	[16dJJ	ら
[4AA	.	8r	.	.	.	16dKL]	.
.	.	.	.	.	.	8.eJ	.
.	.	8f#L	lu	.	.	.	.
8AAL]	.	8g	lu	.	.	4r	.
8EEJ	.	8aJ	lu	.	.	.	.
=17	=17	=17	=17	=17	=17	=17	=17
16C	2e	2g	.	2b	ha	4e	ゆう
16r	.	.	.	.	.	.	.
[8C	.	.	.	.	.	.	.
8.CL]	.	.	.	.	.	16eLL	が
.	.	.	.	.	.	16d	.
.	.	.	.	.	.	16B	た
16AAJk	.	.	.	.	.	[16dJJ	の
[4D	2d	2f#	.	2a	.	16dKL]	.
.	.	.	.	.	.	8.e'J	.
8DL]	.	.	.	.	.	4r	.
8EEJ	.	.	.	.	.	.	.
=18	=18	=18	=18	=18	=18	=18	=18
4GG	4d	4g	.	4b	fu	8eL	メ
.	.	.	.	.	.	16dL	ロ
.	.	.	.	.	.	[16dJJ	ディ
4FF#	4d	4f#	.	4a	.	8dL]	.
.	.	.	.	.	.	16BL	.
.	.	.	.	.	.	16GJJ	に
4EE	2B	2d	.	2g	.	2r	.
8GGL	.	.	.	.	.	.	.
8BBJ	.	.	.	.	.	.	.
=19	=19	=19	=19	=19	=19	=19	=19
[4AA	4r	4r	.	4r	.	8EL	お
.	.	.	.	.	.	16GL	も
.	.	.	.	.	.	[16AJJ	い
8.AAL]	4E	4e	.	4e	oh	16ALL]	.
.	.	.	.	.	.	16B	の
.	.	.	.	.	.	16A	せ
16AAJk	.	.	.	.	.	16AJJ	て
2BB	4F#	4f#	.	4f#	.	4d	.
.	4c	4e	.	4g	.	4r	.
=20	=20	=20	=20	=20	=20	=20	=20
16DLL	16cLL	16eLL	.	16gLL	sya	16eKL	と
16D	16c	16e	.	16g	ba	8.dJ	ど
16D	16c	16e	.	16g	da	.	.
16DJJ	16cJJ	16eJJ	.	16gJJ	ba	.	.
8D'L	8c'L	8e'L	.	8g'L	da	8dL	け
16DL	16cL	16eL	.	16gL	da	16BL	て
16DJJ	16cJJ	16eJJ	.	16gJJ	da	[16dJJ	く
16r	16r	16r	.	16r	.	16dKL]	.
16DKL	16cKL	16eKL	.	16gKL	da	8.eJ	れ
8D'J	8c'J	8e'J	.	8g'J	da	.	.
8D'L	8c'L	8e'L	.	8g'L	da	8eL	な
8D'J	8c'J	8e'J	.	8g'J	da	8f#J	い
=21	=21	=21	=21	=21	=21	=21	=21
16D	8c'L	8e'L	.	8g'L	la	4d	か
16r	.	.	.	.	.	.	.
16D	8c'J	8e'J	.	8g'J	ta	.	.
16r	.	.	.	.	.	.	.
4D'	4c'	4e'	.	4g'	ta	4r	.
4AA	4c	4e	.	4g	た	4B	た
4D	4d	4f#	.	4a	だ	4c	だ
=22	=22	=22	=22	=22	=22	=22	=22
16GG	2B	2f#	.	2a	し	2d	し
16r	.	.	.	.	.	.	.
8GG	.	.	.	.	.	.	.
16r	.	.	.	.	.	.	.
16AALL	.	.	.	.	.	.	.
16AA#X	.	.	.	.	.	.	.
16BBJJ	.	.	.	.	.	.	.
8C	4.c	4.e	.	4.b	あ	4.g	あ
16r	.	.	.	.	.	.	.
16EE	.	.	.	.	.	.	.
8GGL	.	.	.	.	.	.	.
16CL	8c	8e	.	8b	わ	8e	わ
16GGJJ	.	.	.	.	.	.	.
=23	=23	=23	=23	=23	=23	=23	=23
8BBL	2d	2f#	.	2a	せ	2d	せ
8BBJ	.	.	.	.	.	.	.
16r	.	.	.	.	.	.	.
16BBLL	.	.	.	.	.	.	.
16D	.	.	.	.	.	.	.
16D#XJJ	.	.	.	.	.	.	.
8EL	2B	2d	.	2g	が	4G	が
8EEJ	.	.	.	.	.	.	.
8r	.	.	.	.	.	8GL	い
8BB	.	.	.	.	.	8AJ	ち
=24	=24	=24	=24	=24	=24	=24	=24
8AA	2c	2e	.	2g	fu	8BL	に
16r	.	.	.	.	.	16cL	ち
16EE	.	.	.	.	.	[16BJJ	で
8AAL	.	.	.	.	.	8BL]	.
8AA#XJ	.	.	.	.	.	16cL	も
.	.	.	.	.	.	[16dJJ	お
8.BBL	4B	4d	.	4f#	.	8dL]	.
.	.	.	.	.	.	16AL	お
16FF#Jk	.	.	.	.	.	16GJJ	く
8BBL	4d	4f#	.	4a	.	8r	.
16DL	.	.	.	.	.	16gLL	そ
16BBJJ	.	.	.	.	.	[16gJJ	ば
=25	=25	=25	=25	=25	=25	=25	=25
8CL	2d#X	2g	.	2a#X	wa	8gL]	.
8CJ	.	.	.	.	.	16e#XL	に
.	.	.	.	.	.	[16e#JJ	あ
16r	.	.	.	.	.	8e#L]	.
16AAKL	.	.	.	.	.	.	.
8CJ	.	.	.	.	.	16d#XL	り
.	.	.	.	.	.	[16dnJJ	ま
8r	8r	8r	.	8r	.	8dL]	.
8AA	8c	8e	.	8g	ta	16cL	す
.	.	.	.	.	.	[16BJJ	よう
16r	16r	16r	.	16r	.	16BKL]	.
8.D	8.dn	8.f#	.	8.an	ta	8.cJ	に
=26	=26	=26	=26	=26	=26	=26	=26
8.GGL	2B	2f#	.	2a	か	2d	か
16AAJk	.	.	.	.	.	.	.
4BB	.	.	.	.	.	.	.
8C	4.c	4.e	.	4.b	な	4.g	な
16r	.	.	.	.	.	.	.
16EE	.	.	.	.	.	.	.
8GGL	.	.	.	.	.	.	.
16CL	8c	8e	.	8b	し	8e	し
16GGJJ	.	.	.	.	.	.	.
=27	=27	=27	=27	=27	=27	=27	=27
8BBL	4d	4f#	.	4a	み	4.d	み
8BBJ	.	.	.	.	.	.	.
16r	4f#	4b	.	4dd	は	.	.
16DKL	.	.	.	.	.	.	.
8D#XJ	.	.	.	.	.	[8g	は
4E	2e	2g	.	2b	.	4g]	.
8EEL	.	.	.	.	.	12aL	つ
.	.	.	.	.	.	12b	ぎ
8BBJ	.	.	.	.	.	.	.
.	.	.	.	.	.	[12gJ	の
=28	=28	=28	=28	=28	=28	=28	=28
4AA	2c	2e	.	2g	fu	4g]	.
16r	.	.	.	.	.	8eL	あ
16AAKL	.	.	.	.	.	.	.
8CJ	.	.	.	.	.	16dL	な
.	.	.	.	.	.	[16eJJ	た
4BB	2d	2f#	.	[2a	.	16eLL]	.
.	.	.	.	.	.	16B	へ
.	.	.	.	.	.	16A	の
.	.	.	.	.	.	16GJJ	.
16r	.	.	.	.	.	8r	.
16AAKL	.	.	.	.	.	.	.
8BBJ	.	.	.	.	.	16GLL	か
.	.	.	.	.	.	[16gJJ	け
=29	=29	=29	=29	=29	=29	=29	=29
8CL	2d#X	2g	.	2a#X]	wa	8gL]	.
8CJ	.	.	.	.	.	16e#XL	は
.	.	.	.	.	.	[16e#JJ	し
16r	.	.	.	.	.	8e#L]	.
16AAKL	.	.	.	.	.	.	.
8CJ	.	.	.	.	.	16d#XL	に
.	.	.	.	.	.	[16dnJJ	な
8r	8r	8r	.	8ryy	.	8dL]	.
8AA	8c	8e	.	8gyy	ta	16BL	る
.	.	.	.	.	.	[16BJJ	よ
16r	16r	16r	.	16ryy	.	16BLL]	.
8.D	8.c	8.e	.	8.gyy	ta	16AJ	う
.	.	.	.	.	.	8GJ	に
=30	=30	=30	=30	=30	=30	=30	=30
8BB'L	8A'L	8d'L	.	8f#'L	tu	1r	.
8BB'	8A'	8d'	.	8f#'	tu	.	.
8BB'	8A'	8d'	.	8f#'	tu	.	.
8BB'J	8A'J	8d'J	.	8f#'J	tu	.	.
8AA#X'L	8A'L	8d'L	.	8e#X'L	tu	.	.
8AA#'	8A'	8d'	.	8e#'	tu	.	.
8AA#'	8A'	8d'	.	8e#'	tu	.	.
8AA#'J	8A'J	8d'J	.	8e#'J	tu	.	.
=31	=31	=31	=31	=31	=31	=31	=31
8.EEL	8.GL	8.cL	.	8.eL	oh	1r	.
[16FF#Jk	[16AJk	[16dJk	.	[16f#Jk	.	.	.
8.FF#L]	8.AL]	8.dL]	.	8.f#L]	.	.	.
[16GGJk	[16BJk	[16dJk	.	[16gJk	.	.	.
8.GGL]	8.BL]	8.dL]	.	8.gL]	.	.	.
[16AAJk	[16dJk	[16eJk	.	[16gJk	.	.	.
4AA]	4d]	4e]	.	4g]	.	.	.
=32	=32	=32	=32	=32	=32	=32	=32
8BB'L	8A'L	8d'L	.	8f#'L	tu	1r	.
8BB'	8A'	8d'	.	8f#'	tu	.	.
8BB'	8A'	8d'	.	8f#'	tu	.	.
8BB'J	8A'J	8d'J	.	8f#'J	tu	.	.
8AA#X'L	8A'L	8d'L	.	8e#X'L	tu	.	.
8AA#'	8A'	8d'	.	8e#'	tu	.	.
8AA#'	8A'	8d'	.	8e#'	tu	.	.
8AA#'J	8A'J	8d'J	.	8e#'J	tu	.	.
=33	=33	=33	=33	=33	=33	=33	=33
8.AAL	8.GL	8.cL	.	8.eL	oh	1r	.
[16BBJk	[16AJk	[16dJk	.	[16f#Jk	.	.	.
8.BBL]	8.AL]	8.dL]	.	8.f#L]	.	.	.
[16CJk	[16A#XJk	[16d#XJk	.	[16gJk	.	.	.
8.CL]	8.A#L]	8.d#L]	.	8.gL]	.	.	.
[16DJk	[16cJk	[16f#Jk	.	[16aJk	.	.	.
4D]	4c]	4f#]	.	4a]	.	.	.
=34	=34	=34	=34	=34	=34	=34	=34
*M2/4	*M2/4	*M2/4	*	*M2/4	*	*M2/4	*
4r	4r	4r	.	4r	.	2r	.
4GG	4B	4d	.	4e#X	fu	.	.
=35	=35	=35	=35	=35	=35	=35	=35
*M4/4	*M4/4	*M4/4	*	*M4/4	*	*M4/4	*
16AA	4r	4r	.	4r	.	8gL	あ
16r	.	.	.	.	.	.	.
8AA	.	.	.	.	.	8eJ	な
16r	8dL	8gL	.	8gL	あ	4r	.
16EEKL	.	.	.	.	.	.	.
8AAJ	8BJ	8eJ	.	8eJ	な	.	.
8BBL	4r	4r	.	4r	.	8gL	た
8GGJ	.	.	.	.	.	8eJ	は
16GGLL	8dL	8gL	.	8gL	た	4r	.
16AAJ	.	.	.	.	.	.	.
8BBJ	8BJ	8eJ	.	8eJ	は	.	.
=36	=36	=36	=36	=36	=36	=36	=36
8C	2A#X	2d#X	.	2g	fu	8A#XL	ど
16r	.	.	.	.	.	16A#L	こ
16C	.	.	.	.	.	[16AnJJ	で
8GGL	.	.	.	.	.	16ALL]	.
.	.	.	.	.	.	16GJ	も
16CL	.	.	.	.	.	[8GJ	い
16EJJ	.	.	.	.	.	.	.
8DL	4c	4e#X	.	4a	.	8GL]	.
16E#XL	.	.	.	.	.	16AL	け
16F#JJ	.	.	.	.	.	16GJJ	る
8GL	4B	4dn	.	4g	.	4A'	.
8DJ	.	.	.	.	.	.	.
=37	=37	=37	=37	=37	=37	=37	=37
8AAL	4r	4r	.	4r	.	8g	あ
8AAJ	.	.	.	.	.	4.e'	な
16CLL	8dL	8gL	.	8gL	あ	.	.
16EE	.	.	.	.	.	.	.
16AA	8BJ	8eJ	.	8eJ	な	.	.
16AA#XJJ	.	.	.	.	.	.	.
8BBL	4r	4r	.	4r	.	8g	た
8BBJ	.	.	.	.	.	4.e'	は
8r	8BL	8dL	.	8gL	た	.	.
8GG	8BJ	8dJ	.	8gJ	は	.	.
=38	=38	=38	=38	=38	=38	=38	=38
8CL	[2.A#X	[2.d#X	.	[2.g	ha	8a#XL	なん
8CJ	.	.	.	.	.	16a#L	に
.	.	.	.	.	.	[16anJJ	で
16r	.	.	.	.	.	16aLL]	.
16AA#XKL	.	.	.	.	.	16gJ	も
[8CJ	.	.	.	.	.	[8gJ	な
8CL]	.	.	.	.	.	8g]	.
8GG	.	.	.	.	.	4e	れ
8C	8A#L]	8d#L]	.	8gL]	.	.	.
[8DJ	[8cJ	[8gJ	.	[8aJ	.	16aLL	る
.	.	.	.	.	.	16gJJ	.
=39	=39	=39	=39	=39	=39	=39	=39
8DL]	1c_	1g]	.	1a_	.	[2.a	.
8D	.	.	.	.	.	.	.
8D	.	.	.	.	.	.	.
8DJ	.	.	.	.	.	.	.
8DL	.	.	.	.	.	.	.
8D	.	.	.	.	.	.	.
8D	.	.	.	.	.	16a]	.
.	.	.	.	.	.	16r	.
8DJ	.	.	.	.	.	24bLL	.
.	.	.	.	.	.	24a	.
.	.	.	.	.	.	24bJJ	.
=40	=40	=40	=40	=40	=40	=40	=40
8DL	4.c]	4.f#	.	4.a]	.	4dd	.
8D	.	.	.	.	.	.	.
8DJ	.	.	.	.	.	4r	.
8r	8r	8r	.	8r	.	.	.
4AA	4c	4e	.	4g	た	4B	た
4D	4d	4f#	.	4a	だ	4c	だ
=41	=41	=41	=41	=41	=41	=41	=41
16GG	2B	2f#	.	2a	し	2d	し
16r	.	.	.	.	.	.	.
8GG	.	.	.	.	.	.	.
16r	.	.	.	.	.	.	.
16AALL	.	.	.	.	.	.	.
16AA#X	.	.	.	.	.	.	.
16BBJJ	.	.	.	.	.	.	.
8C	4.c	4.e	.	4.b	あ	4.g	あ
16r	.	.	.	.	.	.	.
16EE	.	.	.	.	.	.	.
8GGL	.	.	.	.	.	.	.
16CL	8c	8e	.	8b	わ	8e	わ
16GGJJ	.	.	.	.	.	.	.
=42	=42	=42	=42	=42	=42	=42	=42
8BBL	2d	2f#	.	2a	せ	2d	せ
8BBJ	.	.	.	.	.	.	.
16r	.	.	.	.	.	.	.
16BBLL	.	.	.	.	.	.	.
16D	.	.	.	.	.	.	.
16D#XJJ	.	.	.	.	.	.	.
8EL	2B	2d	.	2g	が	4G	が
8EEJ	.	.	.	.	.	.	.
8r	.	.	.	.	.	8GL	い
8BB	.	.	.	.	.	8AJ	ち
=43	=43	=43	=43	=43	=43	=43	=43
8AA	2c	2e	.	2g	fu	8BL	に
16r	.	.	.	.	.	16cL	ち
16EE	.	.	.	.	.	[16BJJ	で
8AAL	.	.	.	.	.	8BL]	.
8AA#XJ	.	.	.	.	.	16cL	も
.	.	.	.	.	.	[16dJJ	お
8.BBL	4B	4d	.	4f#	.	8dL]	.
.	.	.	.	.	.	16AL	お
16FF#Jk	.	.	.	.	.	16GJJ	く
8BBL	4d	4f#	.	4a	.	8r	.
16DL	.	.	.	.	.	16gLL	そ
16BBJJ	.	.	.	.	.	[16gJJ	ば
=44	=44	=44	=44	=44	=44	=44	=44
8CL	2d#X	2g	.	2a#X	wa	8gL]	.
8CJ	.	.	.	.	.	16e#XL	に
.	.	.	.	.	.	[16e#JJ	あ
16r	.	.	.	.	.	8e#L]	.
16AAKL	.	.	.	.	.	.	.
8CJ	.	.	.	.	.	16d#XL	り
.	.	.	.	.	.	[16dnJJ	ま
8r	8r	8r	.	8r	.	8dL]	.
8AA	8c	8e	.	8g	ta	16cL	す
.	.	.	.	.	.	[16BJJ	よう
16r	16r	16r	.	16r	.	16BKL]	.
8.D	8.dn	8.f#	.	8.an	ta	8.cJ	に
=45	=45	=45	=45	=45	=45	=45	=45
8.GGL	2B	2f#	.	2a	か	2d	か
16AAJk	.	.	.	.	.	.	.
4BB	.	.	.	.	.	.	.
8C	4.c	4.e	.	4.b	な	4.g	な
16r	.	.	.	.	.	.	.
16EE	.	.	.	.	.	.	.
8GGL	.	.	.	.	.	.	.
16CL	8c	8e	.	8b	し	8e	し
16GGJJ	.	.	.	.	.	.	.
=46	=46	=46	=46	=46	=46	=46	=46
8BBL	4d	4f#	.	4a	み	4.d	み
8BBJ	.	.	.	.	.	.	.
16r	4f#	4b	.	4dd	は	.	.
16DKL	.	.	.	.	.	.	.
8D#XJ	.	.	.	.	.	[8g	は
4E	2e	2g	.	2b	.	4g]	.
8EEL	.	.	.	.	.	12aL	つ
.	.	.	.	.	.	12b	ぎ
8BBJ	.	.	.	.	.	.	.
.	.	.	.	.	.	[12gJ	の
=47	=47	=47	=47	=47	=47	=47	=47
4AA	2c	2e	.	2g	fu	4g]	.
16r	.	.	.	.	.	8eL	あ
16AAKL	.	.	.	.	.	.	.
8CJ	.	.	.	.	.	16dL	な
.	.	.	.	.	.	[16eJJ	た
4BB	2d	2f#	.	[2a	.	16eLL]	.
.	.	.	.	.	.	16B	へ
.	.	.	.	.	.	16A	の
.	.	.	.	.	.	16GJJ	.
16r	.	.	.	.	.	8r	.
16AAKL	.	.	.	.	.	.	.
8BBJ	.	.	.	.	.	16GLL	は
.	.	.	.	.	.	[16gJJ	し
=48	=48	=48	=48	=48	=48	=48	=48
8CL	2d#X	2g	.	2a#X]	wa	8gL]	.
8CJ	.	.	.	.	.	16e#XL	に
.	.	.	.	.	.	[16e#JJ	な
16r	.	.	.	.	.	8e#L]	.
16AAKL	.	.	.	.	.	.	.
8CJ	.	.	.	.	.	16d#XL	り
.	.	.	.	.	.	[16dnJJ	ま
8r	8r	8r	.	8r	.	8dL]	.
8AA	8c	8e	.	8g	ta	16cL	す
.	.	.	.	.	.	[16BJJ	よう
16r	16r	16r	.	16r	.	16BKL]	.
8.D	8.dn	8.f#	.	8.an	ta	8.cJ	に
=49	=49	=49	=49	=49	=49	=49	=49
16GG	2B	2f#	.	2a	ほ	2d	ほ
16r	.	.	.	.	.	.	.
8GG	.	.	.	.	.	.	.
16r	.	.	.	.	.	.	.
16AALL	.	.	.	.	.	.	.
16AA#X	.	.	.	.	.	.	.
16BBJJ	.	.	.	.	.	.	.
8C	4.c	4.e	.	4.b	ほ	4.g	ほ
16r	.	.	.	.	.	.	.
16EE	.	.	.	.	.	.	.
8GGL	.	.	.	.	.	.	.
16CL	8c	8e	.	8b	え	8e	え
16GGJJ	.	.	.	.	.	.	.
=50	=50	=50	=50	=50	=50	=50	=50
8BBL	2d	2f#	.	2a	み	2d	み
8BBJ	.	.	.	.	.	.	.
16r	.	.	.	.	.	.	.
16BBLL	.	.	.	.	.	.	.
16D	.	.	.	.	.	.	.
16D#XJJ	.	.	.	.	.	.	.
8EL	2B	2d	.	2g	が	4G	が
8EEJ	.	.	.	.	.	.	.
8r	.	.	.	.	.	8GL	い
8BB	.	.	.	.	.	8AJ	ち
=51	=51	=51	=51	=51	=51	=51	=51
8AA	2c	2e	.	2g	fu	8BL	に
16r	.	.	.	.	.	16cL	ち
16EE	.	.	.	.	.	[16BJJ	で
8AAL	.	.	.	.	.	8BL]	.
8AA#XJ	.	.	.	.	.	16cL	も
.	.	.	.	.	.	[16dJJ	お
8.BBL	4B	4d	.	4f#	.	8dL]	.
.	.	.	.	.	.	16AL	お
16FF#Jk	.	.	.	.	.	16GJJ	く
8BBL	4d	4f#	.	4a	.	8r	.
16DL	.	.	.	.	.	16gLL	そ
16BBJJ	.	.	.	.	.	[16gJJ	ば
=52	=52	=52	=52	=52	=52	=52	=52
8CL	2d#X	2g	.	2a#X	wa	8gL]	.
8CJ	.	.	.	.	.	16e#XL	に
.	.	.	.	.	.	[16e#JJ	あ
16r	.	.	.	.	.	8e#L]	.
16AAKL	.	.	.	.	.	.	.
8CJ	.	.	.	.	.	16d#XL	り
.	.	.	.	.	.	[16dnJJ	ま
8r	8r	8r	.	8r	.	8dL]	.
8AA	8c	8e	.	8g	ta	16cL	す
.	.	.	.	.	.	[16BJJ	よう
16r	16r	16r	.	16r	.	16BKL]	.
8.D	8.dn	8.f#	.	8.an	ta	8.cJ	に
=53	=53	=53	=53	=53	=53	=53	=53
8.GGL	2B	2f#	.	2a	な	2d	な
16AAJk	.	.	.	.	.	.	.
4BB	.	.	.	.	.	.	.
8C	4.c	4.e	.	4.b	み	4.g	み
16r	.	.	.	.	.	.	.
16EE	.	.	.	.	.	.	.
8GGL	.	.	.	.	.	.	.
16CL	8c	8e	.	8b	だ	8e	だ
16GGJJ	.	.	.	.	.	.	.
=54	=54	=54	=54	=54	=54	=54	=54
8BBL	8dL	8f#L	.	8aL	の	8dL	の
8BBJ	8d	8f#	.	8a	あ	8e	あ
16r	8d#X	8f#	.	8a	じ	8f#	じ
16DKL	.	.	.	.	.	.	.
8D#XJ	[8eJ	[8gJ	.	[8bJ	は	[8gJ	は
4E	2e]	2g]	.	2b]	.	4g]	.
8EEL	.	.	.	.	.	12aL	つ
.	.	.	.	.	.	12b	ぎ
8BBJ	.	.	.	.	.	.	.
.	.	.	.	.	.	[12gJ	の
=55	=55	=55	=55	=55	=55	=55	=55
4AA	2c	2e	.	2g	fu	4g]	.
16r	.	.	.	.	.	8eL	あ
16AAKL	.	.	.	.	.	.	.
8CJ	.	.	.	.	.	16dL	な
.	.	.	.	.	.	[16eJJ	た
4BB	2d	2f#	.	[2a	.	16eLL]	.
.	.	.	.	.	.	16B	へ
.	.	.	.	.	.	16A	の
.	.	.	.	.	.	16GJJ	.
16r	.	.	.	.	.	8r	.
16AAKL	.	.	.	.	.	.	.
8BBJ	.	.	.	.	.	16GLL	は
.	.	.	.	.	.	[16gJJ	し
=56	=56	=56	=56	=56	=56	=56	=56
8CL	2d#X	2g	.	2a#X]	wa	8gL]	.
8CJ	.	.	.	.	.	16e#XL	に
.	.	.	.	.	.	[16e#JJ	な
16r	.	.	.	.	.	8e#L]	.
16AAKL	.	.	.	.	.	.	.
8CJ	.	.	.	.	.	16d#XL	り
.	.	.	.	.	.	[16dnJJ	ま
8r	8r	8r	.	8r	.	8dL]	.
8AA	8c	8e	.	8g	ta	16cL	す
.	.	.	.	.	.	[16BJJ	よう
16r	16r	16r	.	16r	.	16BKL]	.
8.D	8.dn	8.f#	.	8.an	ta	8.cJ	に
=57	=57	=57	=57	=57	=57	=57	=57
4G	2d	2g	.	2b	fu	4r	.
16r	.	.	.	.	.	4d	と
16DKL	.	.	.	.	.	.	.
8EJ	.	.	.	.	.	.	.
8F#	4c	4e	.	4a	.	8AL	お
16r	.	.	.	.	.	8c	い
16AA	.	.	.	.	.	.	.
8BBL	4d#X	4f#	.	4a	.	8B	ば
8F#J	.	.	.	.	.	8AJ	しょ
=58	=58	=58	=58	=58	=58	=58	=58
4E	4B	4d	.	4g	.	2G	も
4D#X	4A#X	4c#X	.	4f#	.	.	.
4Dn	4An	4cn	.	4e#X	.	8GL	つ
.	.	.	.	.	.	16AL	な
.	.	.	.	.	.	[16BJJ	が
4GG	4B	4d	.	4e#	.	8BL]	.
.	.	.	.	.	.	16GL	っ
.	.	.	.	.	.	[16GJJ	て
=59	=59	=59	=59	=59	=59	=59	=59
8AAL	2A	2c	.	2e	.	2G]	.
8AA	.	.	.	.	.	.	.
8AA	.	.	.	.	.	.	.
8CJ	.	.	.	.	.	.	.
4D	2r	2r	.	2r	.	4r	.
4r	.	.	.	.	.	16DLL	い
.	.	.	.	.	.	16E	.
.	.	.	.	.	.	16G	る
.	.	.	.	.	.	16DJJ	よ
=60	=60	=60	=60	=60	=60	=60	=60
4G	4d	4g	.	4b	fu	2G	.
4F#	4d	4f#	.	4a	.	.	.
4E	4B	4e	.	4g	.	2r	.
4D	4A	4d	.	4f#	.	.	.
=61	=61	=61	=61	=61	=61	=61	=61
16D#X	8AL	8d#XL	.	8f#L	la	1r	.
16r	.	.	.	.	.	.	.
8D#	8AJ	8d#J	.	8f#J	ta	.	.
8r	8r	8r	.	8r	.	.	.
[8E	[8B	[8e	.	[8g	fu	.	.
8EL]	2B]	2e]	.	2g]	.	.	.
8E	.	.	.	.	.	.	.
8BB	.	.	.	.	.	.	.
8AA#XJ	.	.	.	.	.	.	.
=62	=62	=62	=62	=62	=62	=62	=62
16AALL	16cLL	16eLL	.	16gLL	sya	1r	.
16AA	16c	16e	.	16g	ba	.	.
16AA	16c	16e	.	16g	da	.	.
16AAJJ	16cJJ	16eJJ	.	16gJJ	ba	.	.
8AA'L	8c'L	8e'L	.	8g'L	da	.	.
16BBL	16dL	16f#L	.	16aL	da	.	.
16BBJJ	16dJJ	16f#JJ	.	16aJJ	da	.	.
16r	16r	16r	.	16r	.	.	.
16BBKL	16dKL	16f#KL	.	16aKL	da	.	.
8BB'J	8d'J	8f#'J	.	8a'J	da	.	.
4r	4r	4r	.	4r	.	.	.
=63	=63	=63	=63	=63	=63	=63	=63
16CLL	16d#XLL	16gLL	.	16a#XLL	sya	1r	.
16C	16d#	16g	.	16a#	ba	.	.
16C	16d#	16g	.	16a#	da	.	.
16CJJ	16d#JJ	16gJJ	.	16a#JJ	ba	.	.
8C'L	8d#'L	8g'L	.	8a#'L	da	.	.
16DL	16dnL	16f#L	.	16anL	da	.	.
16DJJ	16dJJ	16f#JJ	.	16aJJ	da	.	.
16r	16r	16r	.	16r	.	.	.
16DKL	16dKL	16f#KL	.	16aKL	da	.	.
8D'J	8d'J	8f#'J	.	8a'J	da	.	.
4D	4r	4r	.	4r	.	.	.
=64	=64	=64	=64	=64	=64	=64	=64
[1GG	[1B	[1d	.	[1g	.	[1a	fu
=65	=65	=65	=65	=65	=65	=65	=65
2GG]	2B]	2d]	.	2g]	.	2a]	.
2r	2r	2r	.	2r	.	2r	.
=	=	=	=	=	=	=	=
*-	*-	*-	*-	*-	*-	*-	*-
